trunk/WorldWind/resources/milstd2525/icons/ems/ehfajb---------.svg

<?xml version="1.0" encoding="UTF-8" standalone="no"?>
<!--
Copyright (C) 2012 United States Government as represented by the Administrator of the
National Aeronautics and Space Administration.
All Rights Reserved.
-->

<!--
MIL-STD-2525 tactical symbol icon image. During icon composition this image is multiplied by the desired frame color 
(e.g. black), then drawn on top of the frame and fill.
-->

<svg
   xmlns:dc="http://purl.org/dc/elements/1.1/"
   xmlns:cc="http://creativecommons.org/ns#"
   xmlns:rdf="http://www.w3.org/1999/02/22-rdf-syntax-ns#"
   xmlns:svg="http://www.w3.org/2000/svg"
   xmlns="http://www.w3.org/2000/svg"
   xmlns:sodipodi="http://sodipodi.sourceforge.net/DTD/sodipodi-0.dtd"
   xmlns:inkscape="http://www.inkscape.org/namespaces/inkscape"
   height="400px"
   viewBox="0 0 400 400"
   width="400px"
   id="svg2"
   version="1.1"
   inkscape:version="0.48.2 r9819"
   sodipodi:docname="ehfajb---------.svg">
  <metadata
     id="metadata26">
    <rdf:RDF>
      <cc:Work
         rdf:about="">
        <dc:format>image/svg+xml</dc:format>
        <dc:type
           rdf:resource="http://purl.org/dc/dcmitype/StillImage" />
      </cc:Work>
    </rdf:RDF>
  </metadata>
  <defs
     id="defs24" />
  <sodipodi:namedview
     pagecolor="#ffffff"
     bordercolor="#666666"
     borderopacity="1"
     objecttolerance="10"
     gridtolerance="10"
     guidetolerance="10"
     inkscape:pageopacity="0"
     inkscape:pageshadow="2"
     inkscape:window-width="640"
     inkscape:window-height="480"
     id="namedview22"
     showgrid="false"
     inkscape:zoom="0.59"
     inkscape:cx="200"
     inkscape:cy="200"
     inkscape:window-x="108"
     inkscape:window-y="114"
     inkscape:window-maximized="0"
     inkscape:current-layer="svg2" />
  <g
     transform="matrix(100,0,0,100,70,62)"
     id="g4">
    <path
       inkscape:connector-curvature="0"
       d="m 1.36136,0.943654 0,0.009339 c 0,0.036803 0.03472,0.079377 0.07004,0.079377 l 0.00934,0 c 0.03869,0 0.0747,-0.03079 0.0747,-0.070039 l 0,-0.032685 C 1.51544,0.905709 1.4769,0.878284 1.4454,0.878284 l -0.00466,0 c -0.03757,0 -0.07938,0.035531 -0.07938,0.06537 z"
       style="fill:#000000"
       id="path6" />
    <path
       inkscape:connector-curvature="0"
       d="m 1.52011,1.21914 c 0,0.03473 -0.01401,0.03887 -0.01401,0.0607 l 4.1e-4,0.01499 0.11165,-0.04301 0,-0.08871 C 1.60606,1.16029 1.55394,1.13687 1.54527,1.1414 1.53601,1.14625 1.53307,1.19979 1.52011,1.21914 z"
       style="fill:#ffffff"
       id="path8" />
    <path
       inkscape:connector-curvature="0"
       d="M 1.43607,1.31252 C 1.44599,1.29825 1.44541,1.29374 1.44541,1.2705 z"
       style="fill:#ffffff"
       id="path10" />
    <path
       inkscape:connector-curvature="0"
       d="m 0.698331,1.24248 c 0,0.04448 0.028327,0.08405 0.074709,0.08405 l 0.014008,0 c 0.03411,0 0.0607,-0.03847 0.0607,-0.07471 0,-0.10906 -0.149417,-0.10586 -0.149417,-0.00934 z"
       style="fill:#000000"
       id="path12" />
    <path
       inkscape:connector-curvature="0"
       d="m 0.698331,1.24248 c 0,-0.09652 0.149417,-0.09972 0.149417,0.00934 0,0.03624 -0.026591,0.07471 -0.060701,0.07471 l -0.014008,0 c -0.046382,0 -0.074708,-0.03957 -0.074708,-0.08405 z M 1.43607,1.31252 1.44541,1.2705 1.47342,1.09307 l 0.00934,0 0,-0.01401 c 0,-0.02091 0.06412,-0.092509 0.07956,-0.104056 L 1.84696,1.01369 C 1.83385,1.03327 1.82398,1.07344 1.81052,1.09865 1.80301,1.11272 1.79982,1.12568 1.79371,1.14254 1.78733,1.16017 1.7773,1.1626 1.76869,1.17948 l 0.15513,-0.07142 0.02492,0.0716 -0.22785,0.10017 0,0.01401 c 0,0.05212 0.00493,0.09343 0.00467,0.14008 -2.5e-4,0.04415 0.02057,0.10739 -0.03269,0.10739 -0.0524,0 -0.03252,-0.0538 -0.03768,-0.09772 C 1.65109,1.40864 1.64619,1.35551 1.64579,1.3163 l -0.33112,0.14563 0,0.24747 0.07004,0 0,0.16809 -0.21012,0 0,-0.16809 0.07471,0 3.2e-4,-0.20941 -0.350509,0.15805 C 0.926013,1.68143 1.10923,1.77965 1.10923,1.80279 l 0,0.00934 c 0,0.0181 -0.02567,0.03735 -0.0467,0.03735 l -0.01401,0 C 1.01869,1.84948 0.825402,1.7297 0.787016,1.70933 L 0.633055,1.77939 0.600685,1.71497 0.703,1.67205 C 0.696142,1.64636 0.651642,1.6338 0.651642,1.61135 l 0,-0.11673 c 0,-0.01084 0.056972,-0.14008 0.070035,-0.14008 l 0.107394,0 c 0.020114,0 0.169516,0.1681 0.182099,0.1681 0.03839,0 0.36395,-0.1817 0.4249,-0.18677 l 0,-0.02335 z M 1.36136,0.943649 c 0,-0.029838 0.04181,-0.06537 0.07938,-0.06537 l 0.00467,0 c 0.03149,0 0.07004,0.027426 0.07004,0.051363 l 0,0.032684 c 0,0.039244 -0.03602,0.070044 -0.07471,0.070044 l -0.00934,0 c -0.03531,0 -0.07004,-0.042579 -0.07004,-0.079382 z M 0.402212,1.06655 c 0.032425,0.00317 0.11402,-0.00794 0.11402,0.02185 l 0,0.87314 1.536168,0 0,-0.87314 c 0,-0.02979 0.0816,-0.01868 0.11433,-0.02238 L 1.2816,0.522804 0.402209,1.06655 z"
       style="fill:#ffffff"
       id="path14" />
    <path
       inkscape:connector-curvature="0"
       d="m 0.810394,1.54131 c 0,0.0153 0.018661,0.04316 0.024524,0.06325 L 0.954509,1.54928 0.958312,1.54644 0.810395,1.43859 z"
       style="fill:#ffffff"
       id="path16" />
    <path
       inkscape:connector-curvature="0"
       d="M 0.810394,1.43859 0.958311,1.54645 0.954508,1.54929 0.834917,1.60456 C 0.829055,1.58447 0.810393,1.55661 0.810393,1.54131 z M 1.52011,1.21914 C 1.53307,1.19978 1.53602,1.14624 1.54527,1.1414 1.55394,1.13687 1.60606,1.16029 1.61817,1.16311 l 0,0.08871 -0.11166,0.04301 -4e-4,-0.01499 c 0,-0.02184 0.014,-0.02597 0.014,-0.0607 z M 1.44541,1.2705 c 0,0.02325 5.7e-4,0.02775 -0.00934,0.04202 l 0,0.02335 C 1.37512,1.34094 1.04956,1.52264 1.01117,1.52264 0.998586,1.52264 0.849185,1.35455 0.829071,1.35455 l -0.107394,0 c -0.013063,0 -0.070036,0.12924 -0.070036,0.14007 l 0,0.11673 c 0,0.02245 0.0445,0.03502 0.051359,0.0607 L 0.600685,1.71498 0.633055,1.7794 0.787016,1.70933 C 0.825402,1.7297 1.01869,1.84948 1.04852,1.84948 l 0.01401,0 c 0.02103,0 0.04669,-0.01925 0.04669,-0.03735 l 0,-0.00934 c 0,-0.02313 -0.183208,-0.12136 -0.210109,-0.14475 L 1.24962,1.49999 1.2493,1.7094 l -0.07471,0 0,0.1681 0.21012,0 0,-0.1681 -0.07004,0 0,-0.24746 0.33112,-0.14563 c 4e-4,0.0392 0.0053,0.09233 0.0094,0.12728 0.00516,0.04392 -0.01473,0.09772 0.03768,0.09772 0.05326,0 0.03244,-0.06324 0.03269,-0.10739 C 1.72582,1.38727 1.72089,1.34597 1.72089,1.29384 l 0,-0.014 L 1.94874,1.17966 1.92381,1.10806 1.76869,1.17949 C 1.7773,1.1626 1.78733,1.16017 1.79371,1.14255 1.79982,1.12568 1.80301,1.11273 1.81052,1.09865 1.82398,1.07345 1.83385,1.03327 1.84696,1.01369 L 1.56232,0.975006 C 1.54688,0.986553 1.48276,1.05815 1.48276,1.07906 l 0,0.01401 -0.00934,0 -0.02801,0.17743 z"
       style="fill:#000000"
       id="path18" />
    <path
       inkscape:connector-curvature="0"
       d="M 1.2816,0.522807 2.16673,1.06603 C 2.134,1.06972 2.0524,1.05861 2.0524,1.0884 l 0,0.87314 -1.536167,0 0,-0.87314 c 0,-0.02979 -0.081595,-0.01868 -0.11402,-0.02185 L 1.2816,0.522806 z M 0.287439,1.08373 c 0.004827,0.02072 0.006756,0.03268 0.032685,0.03268 l 0.154083,0 0,0.86381 c 0,0.01261 0.002232,0.01287 0.004669,0.02335 l 1.601544,0 c 0.01093,0 0.01867,-0.00775 0.01867,-0.01868 l 0,-0.86848 0.14942,0 c 0.01886,0 0.03268,-0.01016 0.03268,-0.02801 0,-0.01506 -0.44636,-0.280022 -0.49494,-0.312837 C 1.74773,0.749531 1.28713,0.467394 1.28665,0.467394 c -0.00636,0 -0.91901,0.562626 -0.999215,0.616336 z"
       style="fill:#000000;stroke:#000000;stroke-width:0.06;stroke-miterlimit:4;stroke-opacity:1;stroke-dasharray:0.12, 0.06;stroke-dashoffset:0"
       id="path20" />
  </g>
</svg>

<?xml version="1.0"?>
<!--
Copyright (C) 2012 United States Government as represented by the Administrator of the
National Aeronautics and Space Administration.
All Rights Reserved.
-->

<!DOCTYPE svg PUBLIC "-//W3C//DTD SVG 1.1//EN" "http://www.w3.org/Graphics/SVG/1.1/DTD/svg11.dtd" >
<!--
MIL-STD-2525 tactical symbol icon image. During icon composition this image is multiplied by the desired frame color 
(e.g. black), then drawn on top of the frame and fill.
-->
<svg xmlns:xlink="http://www.w3.org/1999/xlink" height="400px" viewBox="0 0 400 400" width="400px"><g transform="scale(100) translate(0.7 0.62)"><path d="M1.36136 0.943654 L1.36136 0.952993 C1.36136 0.989796 1.39608 1.03237 1.4314 1.03237     L1.44074 1.03237 C1.47943 1.03237 1.51544 1.00158 1.51544 0.962331 L1.51544     0.929646 C1.51544 0.905709 1.4769 0.878284 1.4454 0.878284 L1.44074 0.878284     C1.40317 0.878284 1.36136 0.913815 1.36136 0.943654 z" style="fill:rgb(0,0,0)"/><path d="M1.52011 1.21914 C1.52011 1.25387 1.5061 1.25801 1.5061 1.27984 L1.50651 1.29483     L1.61816 1.25182 L1.61816 1.16311 C1.60606 1.16029 1.55394 1.13687 1.54527 1.1414     C1.53601 1.14625 1.53307 1.19979 1.52011 1.21914 z" style="fill:rgb(255,255,255)"/><path d="M1.43607 1.31252 C1.44599 1.29825 1.44541 1.29374 1.44541 1.2705 z" style="fill:rgb(255,255,255)"/><path d="M0.698331 1.24248 C0.698331 1.28696 0.726658 1.32653 0.77304 1.32653 L0.787048 1.32653     C0.821158 1.32653 0.847748 1.28806 0.847748 1.25182 C0.847748 1.14276     0.698331 1.14596 0.698331 1.24248 z" style="fill:rgb(0,0,0)"/><path d="M0.698331 1.24248 C0.698331 1.14596 0.847748 1.14276 0.847748 1.25182 C0.847748 1.28806     0.821157 1.32653 0.787047 1.32653 L0.773039 1.32653 C0.726657 1.32653     0.698331 1.28696 0.698331 1.24248 zM1.43607 1.31252 L1.44541 1.2705 L1.47342     1.09307 L1.48276 1.09307 L1.48276 1.07906 C1.48276 1.05815 1.54688 0.986551     1.56232 0.975004 L1.84696 1.01369 C1.83385 1.03327 1.82398 1.07344 1.81052     1.09865 C1.80301 1.11272 1.79982 1.12568 1.79371 1.14254 C1.78733 1.16017 1.7773     1.1626 1.76869 1.17948 L1.92382 1.10806 L1.94874 1.17966 L1.72089 1.27983     L1.72089 1.29384 C1.72089 1.34596 1.72582 1.38727 1.72556 1.43392 C1.72531     1.47807 1.74613 1.54131 1.69287 1.54131 C1.64047 1.54131 1.66035 1.48751     1.65519 1.44359 C1.65109 1.40864 1.64619 1.35551 1.64579 1.3163 L1.31467 1.46193     L1.31467 1.7094 L1.38471 1.7094 L1.38471 1.87749 L1.17459 1.87749 L1.17459     1.7094 L1.2493 1.7094 L1.24962 1.49999 L0.899111 1.65804 C0.926013 1.68143     1.10923 1.77965 1.10923 1.80279 L1.10923 1.81213 C1.10923 1.83023 1.08356     1.84948 1.06253 1.84948 L1.04852 1.84948 C1.01869 1.84948 0.825402 1.7297 0.787016     1.70933 L0.633055 1.77939 L0.600685 1.71497 L0.703 1.67205 C0.696142     1.64636 0.651642 1.6338 0.651642 1.61135 L0.651642 1.49462 C0.651642 1.48378     0.708614 1.35454 0.721677 1.35454 L0.829071 1.35454 C0.849185 1.35454 0.998587     1.52264 1.01117 1.52264 C1.04956 1.52264 1.37512 1.34094 1.43607 1.33587     L1.43607 1.31252 zM1.36136 0.943649 C1.36136 0.913811 1.40317 0.878279 1.44074     0.878279 L1.44541 0.878279 C1.4769 0.878279 1.51545 0.905705 1.51545 0.929642     L1.51545 0.962326 C1.51545 1.00157 1.47943 1.03237 1.44074 1.03237 L1.4314     1.03237 C1.39609 1.03237 1.36136 0.989791 1.36136 0.952988 zM0.402212     1.06655 C0.434637 1.06972 0.516232 1.05861 0.516232 1.0884 L0.516232 1.96154     L2.0524 1.96154 L2.0524 1.0884 C2.0524 1.05861 2.134 1.06972 2.16673 1.06602     L1.2816 0.522804 L0.402209 1.06655 z" style="fill:rgb(255,255,255)"/><path d="M0.810394 1.54131 C0.810394 1.55661 0.829055 1.58447 0.834918 1.60456 L0.954509 1.54928     L0.958312 1.54644 L0.810395 1.43859 z" style="fill:rgb(255,255,255)"/><path d="M0.810394 1.43859 L0.958311 1.54645 L0.954508 1.54929 L0.834917 1.60456 C0.829055     1.58447 0.810393 1.55661 0.810393 1.54131 zM1.52011 1.21914 C1.53307 1.19978     1.53602 1.14624 1.54527 1.1414 C1.55394 1.13687 1.60606 1.16029 1.61817 1.16311     L1.61817 1.25182 L1.50651 1.29483 L1.50611 1.27984 C1.50611 1.258 1.52011     1.25387 1.52011 1.21914 zM1.44541 1.2705 C1.44541 1.29375 1.44598 1.29825     1.43607 1.31252 L1.43607 1.33587 C1.37512 1.34094 1.04956 1.52264 1.01117     1.52264 C0.998586 1.52264 0.849185 1.35455 0.829071 1.35455 L0.721677 1.35455     C0.708614 1.35455 0.651641 1.48379 0.651641 1.49462 L0.651641 1.61135 C0.651641     1.6338 0.696141 1.64637 0.703 1.67205 L0.600685 1.71498 L0.633055 1.7794     L0.787016 1.70933 C0.825402 1.7297 1.01869 1.84948 1.04852 1.84948 L1.06253     1.84948 C1.08356 1.84948 1.10922 1.83023 1.10922 1.81213 L1.10922 1.80279     C1.10922 1.77966 0.926012 1.68143 0.899111 1.65804 L1.24962 1.49999 L1.2493     1.7094 L1.17459 1.7094 L1.17459 1.8775 L1.38471 1.8775 L1.38471 1.7094 L1.31467     1.7094 L1.31467 1.46194 L1.64579 1.31631 C1.64619 1.35551 1.65109 1.40864     1.65519 1.44359 C1.66035 1.48751 1.64046 1.54131 1.69287 1.54131 C1.74613     1.54131 1.72531 1.47807 1.72556 1.43392 C1.72582 1.38727 1.72089 1.34597 1.72089     1.29384 L1.72089 1.27984 L1.94874 1.17966 L1.92381 1.10806 L1.76869 1.17949     C1.7773 1.1626 1.78733 1.16017 1.79371 1.14255 C1.79982 1.12568 1.80301     1.11273 1.81052 1.09865 C1.82398 1.07345 1.83385 1.03327 1.84696 1.01369 L1.56232     0.975006 C1.54688 0.986553 1.48276 1.05815 1.48276 1.07906 L1.48276     1.09307 L1.47342 1.09307 L1.44541 1.2705 z" style="fill:rgb(0,0,0)"/><path d="M1.2816 0.522807 L2.16673 1.06603 C2.134 1.06972 2.0524 1.05861 2.0524 1.0884 L2.0524     1.96154 L0.516233 1.96154 L0.516233 1.0884 C0.516233 1.05861 0.434638 1.06972     0.402213 1.06655 L1.2816 0.522806 zM0.287439 1.08373 C0.292266 1.10445     0.294195 1.11641 0.320124 1.11641 L0.474207 1.11641 L0.474207 1.98022 C0.474207     1.99283 0.476439 1.99309 0.478876 2.00357 L2.08042 2.00357 C2.09135 2.00357     2.09909 1.99582 2.09909 1.98489 L2.09909 1.11641 L2.24851 1.11641 C2.26737     1.11641 2.28119 1.10625 2.28119 1.0884 C2.28119 1.07334 1.83483 0.808378     1.78625 0.775563 C1.74773 0.749531 1.28713 0.467394 1.28665 0.467394 C1.28029     0.467394 0.36764 1.03002 0.287435 1.08373 z" style="fill:rgb(0,0,0)"/></g></svg>
